X:55
T:The Copperplate Reel   Allan's  55  pp 13
B:Allan's Irish Fiddler (pub. Mozart Allen,  Glascow) date unknown
Z:FROM ALLAN'S TO NOTEWORTHY, FROM NOTEWORTHY TO ABC, MIDI AND .TXT BY VINCE
BRENNAN Dec. 2002 (HTTP://WWW.SOSYOURMOM.COM)
I:abc2nwc
M:2/2
L:1/8
K:G
F|:G2(dG) BGdG|G2(dG) BGGB|A2(eA) cAeB|
A2eB cAFA|G2dG BGdG|G2(dG) BGGB|
ABcd efgb|[1aged cAFA:|[2aged ^cdef
|:g2{a}gf gfef|gedc (BG) G2|ea{b}ag ageg|
aged ^cdef|g2{a}gf gbaf|gedc BGGB|
ABcd efgb|[1aged ^cdef:|[2.a.g.e.d (B G) G |]
